X:762
T:Reel 762
M:4/4
K:Dmaj
L:1/8
 (3GBc |d2 (3cBA BEEG| (3FED AD FDEA| (3FED dB BABc|dBAF D2:|de|f>d (3dcd f>a (3aga |edcd efge| (3fga da egec|dBAF E2:|
